X: 70
M: C|
L: 1/8
K: Dm
d2A2 d2e2 | f2gf e2ag | fed2 f2g2 | a6 :|\
|: fg |\
agfg a2b2 | c'2 g4 dc |

